!!!!SEGMENT: pl-sa--573-a-ix-53--004_beethoven-ludwig-van--wariacje.krn
!!!cenid: 18xx:605
!!!COM: Beethoven, Ludwig van
!!!COM-rismid: pe11035
!!!CDT: 1770/12/17-1827/03/26
!!!CNT: German
!!!OTL: Wariacje
!!!PDT:
!!!AGN: Secular; Variations
!!!SMS-siglum: PL-SA
!!!SMS-shelfmark: 573/A IX 53
!!!SMS-shelfwork: 004 W
!!!SMS-variant:
!!!SMS-altvar:
!!!NIFC-rismid: 1001077504
!!!URL-scan: http://bc.bdsandomierz.pl/dlibra/publication/1379/edition/1347/content
!!!ONB-nifc: Str. 4-9
!!!key:
**kern	**kern
*part2	*part1
*staff2	*staff1
*Iempty	*Iempty
*	*I"Keyboard
*	*I'keyb
*group1	*group1
*clefF4	*clefG2
*k[f#]	*k[f#]
*G:	*G:
*M6/8	*M6/8
!	!LO:TX:a:t=Thema
8ryy	8dd\
=1	=1
8G\L	4b\
8B\	.
8d\J	8b\
8D\L	4a\
8F#\	.
8c\J	8a\
=2	=2
8G\L	4g/
8B\	.
8d\J	8g/
8B\L	8r
8G\	8r
8D\J	8dd\
=3	=3
8BB\L	4dd\
8D\	.
8G\J	8g/
8C\L	4ee\
8E\	.
8A\J	8ee\
=4	=4
8D\L	4.a/
8F#\	.
8A\J	.
*rep	*
8D\L	8r
8F#\	8r
8A\J	8a/
*Xrep	*
=5	=5
8G\L	4b\
8A\ 8B	.
8d\J	8b\
.	8qqdd/
8G\L	8cc\L
8A\	8b\
8c\J	8cc\J
=6	=6
8G\L	4.dd\
8B\	.
8d\J	.
8C\L	4ee\
8E\	.
8A\J	8ee\
=7	=7
.	8qee/
8D\L	4g/
8G\	.
8B\J	8g/
.	8qb/
8D\L	8a\L
8A\	8g\
8c\J	8a\J
=8	=8
8G\L	4g/
8B\	.
8d\J	8r
8G\	4r
8r	.
8ryy	8dd\
=9	=9
8E\L	4g#X/
8B\	.
8d\J	8g#/
*rep	*
8E\L	4ee\
8B\	.
8d\J	8ee\
*Xrep	*
=10	=10
.	8qdd/
8E\L	8.cc\L
8A\	.
.	16cc\K
8c\J	8cc\J
*rep	*
8E\L	4r
8A\	.
8c\J	8cc\
*Xrep	*
!!LO:LB:g=original
=11	=11
8D\L	4f#/
!LO:TX:a:t=c	!
8c\	.
8d\J	8f#/
*rep	*
8D\L	4dd\
8c\	.
8d\J	8cc\
*Xrep	*
=12	=12
.	8qcc/
8D\L	8.b\L
8G\	.
.	16b\K
8B\J	8b\J
*rep	*
8D\L	4r
8G\	.
8B\J	8g/
*Xrep	*
=13	=13
8E\L	4cc#X\
8G\	.
8A\J	8cc#\
*rep	*
.	8qdd/
8E\L	8cc#\L
8G\	8b\
8A\J	8cc#\J
*Xrep	*
=14	=14
4.D\ 4.F# 4.A 4.d	4.f#;/ 4.a 4.dd
4r	8r
.	8r
8r	8dd\
=15	=15
.	8qdd/
8D\L	4ccn\
8F#\	.
8A\J	8cc\
.	8qcc/
8D\L	4b\
8G\	.
8B\J	8b\
=16	=16
8D\L	[4.a/
8F#\	.
8A\J	.
*rep	*
8D\L	4a/]
8F#\	.
8A\J	8a/
*Xrep	*
=17	=17
8G\L	4b\
8B\	.
8d\J	8b\
.	8qdd/
8G\L	8cc\L
8B\	8b\
8c\J	8cc\J
=18	=18
8G\L	4dd\
8B\	.
8d\J	8r
8C\L	4r
8E\	.
8A\J	8dd\ 8ee
=19	=19
.	8qee/
8D\L	4g/
8G\	.
8B\J	8g/
.	8qb/
8D\L	8a\L
8F#\	8g\
8A\J	8a\J
=	=
8G\L	4g/
8B\	.
8d\J	8r
4G\	4r
!!LO:LB:g=original
==20;;	==20;;
*k[f#]	*k[f#]
*M6/8	*M6/8
!	!LO:TX:a:t=Varia 1ma
8r	8dd\
=21	=21
4.G\ 4.d	16b\LL
.	16a#X\
.	16b\
.	16dd\
.	16g\
.	16b\JJ
4.G\ 4.c	16an\LL
.	16g#X\
.	16a\
.	16cc\
.	16f#\
.	16a\JJ
=22	=22
4G\ 4B	16g\LL
.	16d\
.	16e\
.	16f#\
8r	16g\
.	16a\JJ
4r	16b\LL
.	16cc\
.	16dd\
.	16ee\
8r	16ff#\
.	16gg\JJ
*clefG2	*
=23	=23
4.B/ 4.g	16aa\LL
.	16gg\
.	16bb\
.	16gg\
.	16ff#\
.	16ee\JJ
4.c/ 4.g	16dd#X\LL
.	16ee\
.	16gg\
.	16ee\
.	16ddn\
.	16cc\JJ
=24	=24
4.d/ 4.g	16b\LL
.	16cc\
.	16dd\
.	16cc#X\
.	16ee\
.	16dd\JJ
4d/ 4f#	4a/
8r	8a#X/
=25	=25
*clefF4	*
(8G\	16b\LL
.	16a#X\
4d\)	16b\
.	16g\
.	16an\
.	16b\JJ
(8A\	16cc\LL
.	16b\
4d\)	16cc\
.	16a\
.	16b\
.	16cc\JJ
=26	=26
(8B\	16b\LL 16dd
.	16a#X\ 16cc#X
4g\)	16b\ 16dd
.	16b\
.	16ccn\
.	16dd\JJ
(8c\	16ee\LL
.	16ff#\
4g\)	16gg\
.	16dd#X\
.	16ee\
.	16cc\JJ
!!LO:LB:g=original
=27	=27
8d\L	16b\LL
.	16cc\
8g\J	16cc#X\
.	16dd\
8r	16b\
.	16g\JJ
4.D\ 4.c	16d\LL
.	16f#\
.	16a\
.	16ccn\
.	16a\
.	16f#\JJ
=28	=28
!LO:TX:a:t=P:problem= 2 ukośne kreski po nucie	!
4.G\ 4.c	8a\L
.	16g#X\L
.	16a\
.	16b\
.	16a\JJ
4G\ 4B	4gn/
8r	16dd/LL
.	16g/JJ
=29	=29
16E\LL	8r
16G#X\	.
16B\	8r
!	!LO:TX:a:t=P:problem=skreślona kreska taktowa
16e\JJ	.
4G#\ 4e	16g#X\LL
.	16b\JJ
.	16ee\LL
.	16gg#X\
4r	16bb\
.	16gg#\
.	16ee\
.	16dd\JJ
=30	=30
4A\ 4e	16cc\LL
.	16dd\
.	16ee\
.	16dd\
8r	16cc\
.	16b\JJ
4r	16a\LL
.	16b\
.	16cc\
.	16b\
8r	16a\
.	16gn\JJ
=31	=31
4D\ 4d	16f#/LL
.	16d/
!	!LO:TX:b:t=f
.	16f#/
.	16a/
8r	16dd/
.	16ff#/JJ
!LO:N:vis=4	!
4.F#\ 4.d	16aa\LL
.	16ggn\
.	16ff#\
.	16ee\
.	16dd\
.	16cc\JJ
=32	=32
4G\ 4d	16b\LL
.	16cc\
.	16dd\
.	16cc\
8r	16b\
.	16a\JJ
4r	16g\LL
.	16a\
.	16b-X\
.	16bn\
8r	16cc\
.	16cc#X\JJ
=33	=33
2.E\ 2.G 2.A	16dd\LL
.	16dd#X\
.	16ee\
.	16ffn\
.	16ff#X\
.	16gg\JJ
.	16aa\LL
.	16gg\
.	16ff#\
.	16ee\
.	16dd#\
.	16cc\JJ
!LO:TX:b:i:t=Volti ʃubito	!
!!LO:PB:g=original
=34	=34
.	8qee;/
4D;\ 4F# 4A	4dd;\
8r	16cc#X\LL
.	16dd\JJ
4r	16cc#\LL
.	16dd\
.	16cc#\
.	16dd\
8r	16ee\
.	16dd\JJ
=35	=35
(8F#\	16cc#X\LL
.	16b\
4d\)	16a\
.	16dd\
.	16cc#X\
.	16dd\JJ
(8G\	16b\LL
.	16a\
4d\)	16g\
.	16dd\
.	16cc#\
.	16dd\JJ
=36	=36
(8D\	16a\LL
.	16g\
4d\)	16f#\
.	16dd\
.	16cc#X\
.	16dd\JJ
4r	16d\LL
.	16dd\
.	16f#\
.	16dd\
8r	16a\
.	16dd\JJ
=37	=37
(8G\	16b\LL
.	16a#X\
4d\)	16b\
.	16g\
.	16an\
.	16b\JJ
(8A\	16cc\LL
.	16b\
4d\)	16cc\
.	16a\
.	16b\
.	16cc\JJ
=38	=38
(8B\	16dd\LL
.	16cc#X\
4g\)	16dd\
.	16b\
.	16ccn\
.	16dd\JJ
(8c\	16ee\LL
.	16ff#\
4g\)	16gg\
.	16dd#X\
.	16ee\
.	16cc\JJ
=39	=39
8d\L	16b\LL
.	16cc\
8g\J	16cc#X\
.	16dd\
8r	16b\
.	16g\JJ
4.D\ 4.c	16d\LL
.	16f#\
.	16a\
!	!LO:SIC:s=16ccn:v
.	16cc#\
.	16a\
.	16f#\JJ
=	=
4.G\ 4.c	8a\L
.	16g#X\L
.	16a\
.	16b\
.	16a\JJ
4G\ 4B	4d/
!!LO:LB:g=original
==40;;	==40;;
*k[f#]	*k[f#]
*M6/8	*M6/8
!	!LO:TX:a:t=Var 2.da
8r	8dd\
=41	=41
16GG\LL	(4bb\
16AA\	.
16BB\	.
16C\	.
16D\	8dd\)
16E\JJ	.
16F#\LL	(4aa\
16G\	.
16A\	.
16D\	.
16E\	8cc\)
16F#\JJ	.
=42	=42
16G\LL	4b\ 4gg
16A\	.
16B\	.
16c\	.
16d\	8r
16e\JJ	.
16f#\LL	4r
16g\	.
16f#\	.
16e\	.
16d\	8g/
16c\JJ	.
=43	=43
16B\LL	4dd\
16A\	.
16B\	.
16G\	.
16A\	8g/
16B\JJ	.
16c\LL	4ee\
16B\	.
16c\	.
16A\	.
16B\	8g/
16c#X\JJ	.
=44	=44
16d\LL	4f#/ 4a
16c#X\	.
16e\	.
16A\	.
16F#\	8r
16A\JJ	.
4D\	16aa\LL
.	16gg\
.	16ff#\
.	16ee\
8r	16dd\
.	16cc\JJ
=45	=45
16G\LL	4b\
16F#\	.
16G\	.
16D\	.
16F#\	8d/
16G\JJ	.
16A\LL	4a/
16G#X\	.
16A\	.
16D\	.
16G#\	8d/
16A\JJ	.
=46	=46
16B\LL	4dd\
16A\	.
16B\	.
16G#X\	.
16A\	8g/
16B\JJ	.
16c\LL	4ee\
16B\	.
16c\	.
16A\	.
16B\	8g/
16c#X\JJ	.
=47	=47
16d\LL	4g/ 4b
16c#X\	.
16d\	.
16c#\	.
16d\	8r
16c#\JJ	.
!!LO:LB:g=original
16d\LL	4a/ 4ff#
16e\	.
16d\	.
16cn\	.
16B\	8r
16A\JJ	.
=48	=48
16G\LL	4b\ 4gg
16F#\	.
16G\	.
16D\	.
16BB\	8r
16D\JJ	.
4GG/	8r
.	16ddd\LL
.	16ccc\
8r	16bb\
.	16aa\JJ
=49	=49
16E\LL	4gg#X\
16G#X\	.
16B\	.
16e\	.
16d#X\	8r
16e\JJ	.
16d#\LL	8r
16e\	.
!	!LO:SIC:n=2:s=8g#:v
16dn\	8g\L 8gg#X
16e\	.
!LO:TX:a:t=d	!LO:SIC:n=2:s=8g#:v
16d\	8g\J 8gg#
16e\JJ	.
=50	=50
16c\LL	8cc\L 8aa
16e\	.
16c\	8cc\ 8aa
16e\	.
16B\	8dd\J 8bb
16e\JJ	.
4A\	16ee\LL 16ccc
.	16ddd\
.	16ccc\
.	16bb\
8r	16aa\
.	16gg\JJ
=51	=51
16D\LL	4ff#\
16F#\	.
16A\	.
16d\	.
16c#X\	8r
16d\JJ	.
16c#\LL	8r
16d\	.
16e\	8a\L 8ff#
16d\	.
16B\	8a\J 8ff#
16d\JJ	.
=52	=52
16B\LL	8b\L 8gg
16d\	.
16B\	8b\ 8gg
16d\	.
16A\	8cc\J 8aa
16d\JJ	.
16G\LL	4dd\ 4bb
16A\	.
16B\	.
16A\	.
16G\	8r
16F#\JJ	.
=53	=53
16E\LL	4gg\ 4bb
16F#\	.
16G\	.
16F#\	.
16E\	8r
16D\JJ	.
16C#X\LL	4ee\ 4gg 4eee
16BB\	.
16C#\	.
16AA\	.
16BB\	8r
16C#\JJ	.
=54	=54
16D/LL	[>4.dd\ [4.ff# [4.ccc
16C#X/	.
16D/	.
16C#/	.
16D/	.
16Cn/JJ	.
!	!LO:TX:a:t=P:problem= ligatura między ccc-aa
4D\	4dd;\] 4ff#] 4aa
8r	8d/
!!LO:LB:g=original
=55	=55
16F#\LL	4a/ 4cc
16E\	.
16F#\	.
16D\	.
16E\	8d/
16F#\JJ	.
16G\LL	4g/ 4b
16F#\	.
16G\	.
16D\	.
16E\	8d/
16F#\JJ	.
=56	=56
16A\LL	4f#/ 4a
16G#X\	.
16A\	.
16D\	.
16F#\	8r
16A\JJ	.
4d\	16aa\LL
.	16gg\
.	16ff#\
.	16ee\
8r	16dd\
.	16cc\JJ
=57	=57
16G\LL	4b\
16F#\	.
16G\	.
16D\	.
16E\	8d/
16F#\JJ	.
16A\LL	4cc\
16G#X\	.
16A\	.
16D\	.
16G#\	8d/
16A\JJ	.
=58	=58
16B\LL	4dd\
16A\	.
16B\	.
16G\	.
16A\	8g/
16B\JJ	.
16c\LL	4ee\
16B\	.
16c\	.
16A\	.
16B\	8g/
16c#X\JJ	.
=59	=59
16d\LL	4g/ 4b
16c#X\	.
16d\	.
16c#\	.
16d\	8r
16c#\JJ	.
16d\LL	4a\ 4ff#
16e\	.
16d\	.
16cn\	.
16B\	8r
16A\JJ	.
=	=
16G\LL	4b\ 4gg
16F#\	.
16G\	.
16D\	.
16BB\	8r
16D\JJ	.
4GG/	4r
!!LO:PB:g=original
==60;;	==60;;
*k[f#]	*k[f#]
*M6/8	*M6/8
!	!LO:TX:a:t=3.
8r	8d/
=61	=61
4G\	16r
.	16B/LL
.	16d/
.	16g/JJ
8r	8g/
4D\	16r
.	16A/LL
.	16c/
.	16f#/JJ
8ryy	8a/
=62	=62
16r	4B/ 4g
16GGG/LL	.
16BBB/	.
16DD/JJ	.
8GG/	8ryy
!	!LO:N:vis=16
16r	8dd\L
16GG\LL	.
!	!LO:N:vis=16
16BB\	8b\
16D\JJ	.
8G\	8g\J
=63	=63
4G\ 4B	16r
.	16d\LL
.	16g\
.	16b\JJ
8r	8dd\
4C\ 4c	16r
.	16e\LL
.	16g\
.	16cc\J
8r	8ee\J
=64	=64
16r	4d/ 4f# 4a
16DD/LL	.
16FF#/	.
16AA/J	.
8D/J	8r
16r	8aa\L
16D\LL	.
16F#\	8ff#\
16A\J	.
8d\J	8dd\J
=65	=65
4G\	16r
.	16B/LL
.	16d/
.	16g/J
8r	8b/J
16r	4cc\
16AA\LL	.
16C\	.
16F#\J	.
8A\J	8r
=66	=66
4BB/	16r
.	16d\LL
.	16g\
.	16b\J
8r	8dd\J
16r	4ee\
16C\LL	.
16E\	.
16A\J	.
8c\J	8r
=67	=67
4BB/	16r
.	16G/LL
.	16B/
.	16d/J
8r	8g/J
4DD/	16r
.	16A/LL
.	16c/
.	16d/J
8r	8f#/J
!!LO:LB:g=original
=68	=68
16r	4.c/ 4.f# 4.a
16GG\LL	.
16BB\	.
16D\J	.
8G\J	.
4GG/	4B/ 4d 4g
8d\	8r
=69	=69
4G#X\	16r
.	16g\LL
.	16b\
.	16dd\J
8r	8ee\J
4d\	16r
.	16ee\LL
.	16gg#X\
.	16bb\J
8r	8eee\J
=70	=70
4c\	16r
.	16ee\LL
.	16aa\
.	16ccc\J
8r	8eee\J
16r	4ee\ 4aa 4ccc 4eee
16AA\LL	.
16C\	.
16E\J	.
8A\J	8r
=71	=71
4F#\	16r
.	16d\LL
.	16f#\
.	16a\J
8r	8dd\J
4c\	16r
.	16dd\LL
.	16ff#\
.	16aa\J
8r	8ddd\J
=72	=72
4B\	16r
.	16dd\LL
.	16gg\
.	16bb\J
8r	8ddd\J
16r	4ee\ 4gg 4bb 4ddd
16GG\LL	.
16BB\	.
16D\J	.
8G\J	8r
=73	=73
4E\	16r
.	16G/LL
.	16c#X/
.	16e/J
8r	8g/J
4E\	16r
.	16g\LL
.	16cc#X\
.	16ee\J
8r	8gg\J
=74	=74
4D\	8r
.	16ff#\LL
.	16gg\
8r	16aa\
!	!LO:TX:a:t=f
.	16ff# 16gg\JJ
4r;	4dd;\
8r	8dd\
=75	=75
16r	4a/ 4cc 4dd
16FF#\LL	.
16AA\	.
16D\J	.
8F#\J	8r
16r	4g/ 4b 4dd
16GG\LL	.
16BB\	.
16D\J	.
8G\J	8ryy
=76	=76
16r	4f#/ 4a 4dd
16FF#\LL	.
16AA\	.
16C\J	.
8F#\J	8r
4F#\	16r
.	16d\LL
.	16f#\
.	16a\J
8r	8dd\J
!!LO:LB:g=original
=77	=77
16ryy	4d/ 4f# 4b
16BB\LL	.
16D\	.
16G\J	.
8B\J	8r
4C/	16r
.	16c\LL
.	16f#\
.	16a\J
8r	8cc\J
=78	=78
4D\	16r
.	16G/LL
.	16B/
.	16d/J
8r	8g/J
4DD/	16r
.	16A/LL
.	16c/
.	16d/J
8r	8f#/J
=79	=79
16r	4.c/ 4.e 4.a
16GG\LL	.
16BB\	.
16D\J	.
8G\J	.
4GG/	4B/ 4d 4g 4b
==80;;	==80;;
*k[b-e-]	*k[b-e-]
*B-:	*B-:
*M6/8	*M6/8
!	!LO:TX:a:t=P:problem=klamra łącząca pięciolinie
!	!LO:TX:a:t=Var 4.
8r	8dd\
=81	=81
*	*^
4.G\ 4.B-	(8dd/L	4.g\
.	8cc/	.
.	8b-/J)	.
4.D\ 4.c	8b-/L	4.f#X\
.	8b-/	.
.	8a/J	.
*	*v	*v
=82	=82
4G\ 4B- 4d	(8b-/L
.	8a/
8r	8g/J
4r	8f#X\L
.	8g\
8r	8b-\J)
=83	=83
!LO:TX:a:t=P:problem=nuta na górnej pięciolinii	!
!LO:TX:a:t=h	!
4.B-\ 4.g	8dd/L
.	8cc#X/
.	8dd/J
!LO:TX:a:t=P:problem=nuta na górnej pięciolinii	!
4c\ 4g	8r
!	!LO:N:vis=16
.	8ffn\L
!	!LO:N:vis=16
8ryy	8ee-\J
=84	=84
!LO:TX:a:t=P:problem=nuta na górnej pięciolinii	!
4d\ 4f#X	8r
.	(<8g#X/L
8r	8a/J
4r	8b-\L
.	8bn\
8r	8cc\J)
=85	=85
*2\right	*
*^	*^
!LO:TX:a:t=P:problem= dziwny pion akordowy z półnutą	!	!	!
2.A\ 2.d	4.ryy	8ryy	4.fn/ 4.a-X
.	.	8cc/L	.
.	.	8b-/J	.
*	*	*v	*v
!LO:TX:a:t=P:problem=nuta na górnej pięciolinii	!	!
.	4.c\ 4.e- 4.g	8raa
.	.	8dd/L
.	.	8cc/J
*v	*v	*
=86	=86
!LO:TX:a:t=P:problem=nuta na górnej pięciolinii	!
4.G\ 4.Bn 4.g	8raa
.	8ee-/L
.	8dd/J
*	*^
4.C\ 4.c	8raa	4.g\
.	8ff/L	.
.	8ee-/J	.
*	*v	*v
=87	=87
4.D\ 4.B-X 4.d	8r
.	8ee-/L
.	8g/J
4.D\ 4.A 4.d	8r
.	8g/L
.	8f#X/J
!!LO:LB:g=original
=88	=88
8GG\L	4.c/ 4.a
8D\	.
8F#X\J	.
*^	*
4G/	4GG\	4B-/ 4g
*v	*v	*
8ryy	8dd\
=89	=89
!LO:TX:a:t=P:problem=nuta na górnej pięciolinii	!
4d\ 4f	8cc/L
.	8bn/
*	*^
8r	8a-X/J	8a-\
*	*v	*v
!	!LO:TX:t=P:problem=mixed beam
4r	8g/L
.	8aa-X\
8BBn/	8gg\J
=90	=90
(8C\L	4gg\
8E-\	.
8G\J	8ff\
8c\L	4r
8d\	.
8e-\J)	8cc\
=91	=91
4e-\	8b-/L
.	8a/
8r	8g/J
!	!LO:TX:t=P:problem=mixed beam
4r	8f#X/L
.	8ee-\
8FF#X/	8dd\J
=92	=92
8GG\L	4cc\
8BB-\	.
8D\J	8b-\
8G\L	4r
8A\	.
8B-\J	8g/ 8dd
=93	=93
4E-\ 4B-	4g/ 4dd
*	*^
8E-\ 8B-	8cc#X/	8g\
4E-\ 4B-	4gg/	4g\
8E-\ 8B-	8cc#/	8g\
*	*v	*v
=	=
4.D;\ 4.B-	4.g;/ 4.cc
.	32qqdd/LLL
.	32qqccn/
.	32qqbn/
.	32qqcc/JJJ
.	qqeen/L
!	!LO:TX:a:t=P:problem= nieczytelny znak krzyżyk/kasownik
.	16qqdd/Jk
4D;\ 4B-	4f#X;/ 4dd
=94	=94
8r	8dd\
=95	=95
*^	*
8rc	4.F#X\	4a\ 4cc
8e-/L	.	.
8d/J	.	8a\ 8dd
8rc	4.G\	4g/ 4b-
8e-/L	.	.
8d/J	.	8g/ 8b-
*v	*v	*
=96	=96
8D\L	[4.f#X/ [4.a
8e-\	.
8d\J	.
4c#X\	4f#/] 4a]
8d\	8cc\
=97	=97
*^	*^
*	*^	*	*
!LO:TX:a:t=P:problem= dziwny pion akordowy z półnutą	!	!	!	!
2.d/	2G\	4.rBByy	4cc 4a/	4.f\
.	.	.	8cc\L	.
!	!	!	!LO:TX:a:t=P:problem= nadmiarowa pauza ósemkowa	!
.	.	4.e-\	8b\J	4g\
.	4ryy	.	8dd/L	.
.	.	.	8cc/J	8ryy
*v	*v	*v	*	*
=98	=98	=98
4.G\ 4.Bn	8raa	4.g\
.	8ee-/L	.
.	8dd/J	.
4.C\ 4.c	8raa	4.g\
.	8ff/L	.
.	8ee-/J	.
*	*v	*v
!!LO:LB:g=original
=99	=99
4.D\ 4.B-X 4.d	8r
.	8ee-/L
.	8g/J
4.D\ 4.A 4.c	8r
.	8g/L
.	8f#X/J
=100	=100
*^	*
8GG\	4.ryy	4.c/ 4.a
8BB-/L	.	.
8F#X/J	.	.
4G/	4GG\	4B-/ 4g
*v	*v	*
*clefG2	*
==101;;	==101;;
*k[f#]	*k[f#]
*G:	*G:
*M6/8	*M6/8
!LO:TX:a:t=P:problem= nieoznaczone wejście klucza wiolinowego	!LO:TX:a:t=Var 5
8b\ 8dd	8r
=102	=102
!	!LO:TX:a:t=P:problem=klamra łukowa i numer
!	!LO:TUP:a
4g/ 4b	24r
.	24ddd\LL
.	24ccc\JJ
!	!LO:TX:a:t=P:problem=klamra łukowa i numer
!	!LO:TUP:a
.	24bb\LL
.	24bb-X\
.	24aa\JJ
8g/ 8b	8gg\
!	!LO:TX:a:t=P:problem=klamra łukowa i numer
!	!LO:TUP:a
4d/ 4a	24r
.	24ccc\LL
.	24bbn\JJ
!	!LO:TX:a:t=P:problem=klamra łukowa i numer
!	!LO:TUP:a
.	24aa\LL
.	24gg#X\
.	24ggn\JJ
8d/ 8a	8ff#\
=103	=103
*	*Xtuplet
!	!LO:TX:a:t=P::problem=brak klamry, brak numeru&colon;global [Var.5]
4B/ 4g	24r
.	24bb\LL
.	24aa\JJ
.	24gg\LL
.	24ff#\
.	24ee\JJ
8r	24dd\LL
.	24cc\
.	24b\JJ
4r	24a\LL
.	24g\
.	24f#\JJ
.	24g\LL
.	24b\
.	24dd\JJ
8r	8gg\
=104	=104
4b\ 4dd	24r
.	24gg\LL
.	24aa\JJ
.	24bb\LL
.	24ccc\
.	24ccc#X\JJ
8b\ 8dd	8ddd\
4cc\ 4ee	24r
.	24aa\LL
.	24bb\JJ
!	!LO:N:vis=8
.	24ccc#\LL
!	!LO:N:vis=8
.	24ddd\
!	!LO:N:vis=8
.	24ddd#X\JJ
8cc\ 8ee	8eee\
=105	=105
4d/ 4a	24r
.	24aa\LL
.	24gg\JJ
.	24ff#\LL
.	24ee\
.	24dd\JJ
!!LO:LB:g=original
8r	24cc#X\LL
.	24b\
.	24a\JJ
4r	24g/LL
.	24f#/
.	24e/JJ
.	8d/
8d/ 8a	8r
=106	=106
4g/ 4b	8r
.	24gg\LL
.	24aa\
.	24ff#\JJ
8g/ 8b	8gg\
4a\ 4cc	8r
.	24gg\LL
.	24aa\
.	24ff#\JJ
8a\ 8cc	8gg\
=107	=107
4b\ 4dd	8r
.	24gg\LL
.	24aa\
.	24ff#\JJ
8b\ 8dd	8gg\
4cc\ 4ee	8r
.	24gg\LL
.	24aa\
.	24ff#\JJ
8r	24gg\LL
.	24aa\
.	24ff#\JJ
=108	=108
*clefF4	*
4.D\ 4.G 4.B	24gg\LL
!	!LO:TX:a:t=d
.	24ddd\
.	24ccc\JJ
.	24bb\LL
.	24aa\
.	24gg\JJ
.	24ff#\LL
.	24ee\
.	24dd\JJ
4.D\ 4.A 4.c	24cc\LL
.	24b\
.	24a\JJ
.	24g\LL
.	24f#\
.	24a\JJ
.	24cc/LL
.	24a/
.	24f#/JJ
=109	=109
4.G\ 4.c	4.a/
4G\ 4B	4g/
*clefG2	*
8dd\	8r
=110	=110
4g#X/	24r
.	24ee\LL
.	24ff#X\JJ
.	24gg#X\LL
.	24aa\
.	24aa#X\JJ
8g#/	8bb\
4g#\ 4dd	8r
.	8eee\L
8g#\ 8dd	8eee\J
=111	=111
4a\ 4cc	24eee\LL
.	24ddd\
.	24ccc#X\JJ
.	24cccn\LL
.	24bb\
.	24bb-X\JJ
8r	8aa\
8cc\L	8r
8a\	8r
8gn\J	8aa\
!!LO:LB:g=original
=112	=112
!LO:N:vis=4	!
4.f#/	24r
.	24dd\LL
.	24ee\JJ
.	24ff#\LL
.	24gg\
.	24gg#X\J
.	8aa\J
8f#/	8r
8f#/L 8cc	8ddd\L
8f#/J 8cc	8ddd\J
=113	=113
4g/ 4b	24ddd\LL
.	24ccc#X\
.	24cccn\JJ
.	24bbn\LL
.	24bb-X\
.	24aa\JJ
8r	8gg\
*clefF4	*
8G\L	8r
8E\	8gg\L
8D\J	8gg\J
=114	=114
4C#X/	24gg\LL
.	24ff#\
.	24ee\JJ
.	24dd\LL
.	24cc#X\
.	24b\JJ
8r	24a\LL
.	24g\
.	24f#\JJ
4.GG\ 4.E 4.G	24e/LL
.	24d/
.	24c#X/JJ
.	24g/LL
.	24e/
.	24c#/JJ
.	24g/LL
.	24e/
.	24c#/JJ
=115	=115
4.D\ 4.G	4.e/
.	16qqf#/LL
.	16qqe/JJ
4D\ 4F#	4d/
!	!LO:TX:a:t=P:problem= brak kreski taktowej przed przedtaktem
!	!LO:N:vis=16
8r;	8r;
*clefG2	*
=116	=116
8d/	8r
=117	=117
4a/ 4cc	8r
.	24dd\LL
.	24ee\
.	24cc#X\JJ
8a/ 8cc	8dd\
4g/ 4b	8r
.	24dd\LL
.	24ee\
.	24cc#\JJ
8g/ 8b	8dd\
=118	=118
4f#/ 4a	8r
.	24ddd\LL
.	24eee\
.	24ccc#X\JJ
8r	24ddd\LL
.	24eee\
.	24ccc#\JJ
4r	4ddd\
8f#/ 8a	8r
=119	=119
4g/ 4b	8r
.	24gg\LL
.	24aa\
.	24ff#\JJ
!LO:N:vis=4	!
8g/ 8b	8gg\
4a/ 4cc	8r
.	24gg\LL
.	24aa\
.	24ff#\JJ
!LO:N:vis=4	!
8a/ 8cc	8gg\
!!LO:LB:g=original
=120	=120
4b\ 4dd	8r
.	24aa\LL
.	24gg\
.	24ff#\JJ
*	*rep
8b\ 8dd	24aa\LL
.	24gg\
.	24ff#\JJ
*	*Xrep
*	*rep
4cc\ 4ee	24aa\LL
.	24gg\
.	24ff#\JJ
*	*Xrep
*	*rep
.	24aa\LL
.	24gg\
.	24ff#\JJ
*	*Xrep
*	*rep
8r	24aa\LL
.	24gg\
.	24ff#\JJ
*	*Xrep
=121	=121
*clefF4	*
4.D\ 4.G 4.B	24gg\LL
.	24ff#\
.	24ee\JJ
.	24dd\LL
.	24cc\
.	24b\JJ
.	24a\LL
.	24g\
.	24f#\JJ
4.D\ 4.A 4.c	24e/LL
.	24d/
.	24c#X/JJ
!	!LO:TX:a:t=d
.	24g/LL
!	!LO:TX:a:t=f
.	24e/
!	!LO:TX:a:t=a
.	24c#/JJ
*	*rep
!	!LO:TX:a:t=c
.	24g/LL
!	!LO:TX:a:t=a
.	24e/
!	!LO:TX:a:t=f
.	24c#/JJ
*	*Xrep
=	=
4.G\ 4.c	4.a\
4G\ 4B	4g/
*clefF4	*
!!LO:LB:g=original
==122;;	==122;;
*k[f#]	*k[f#]
*M6/8	*M6/8
!	!LO:TX:a:t=Var 6.
!	!LO:TX:t=P:problem=mixed beam
8r	16dd\LL
.	16d/JJ
=123	=123
16GG\LL	16b/LL
16G\	16d/
16D\	16cc/
16G\	16d/
16GG\	16b/
16G\JJ	16d/JJ
*rep	*
16GG\LL	16a/LL
16G\	16c/
16D\	16b/
16G\	16c/
16GG\	16a/
16G\JJ	16c/JJ
*Xrep	*
=124	=124
*rep	*
16GG\LL	16g/LL
16G\	16B/
16D\	16f#/
16G\	16B/
16GG\	16g/
16G\JJ	16B/JJ
*Xrep	*
*rep	*
16GG\LL	16d/LL
16G\	16B/
16D\	16g/
16G\	16B/
16GG\	16b/
16G\JJ	16B/JJ
*Xrep	*
=125	=125
16BB\LL	16dd/LL
16B\	16d/
16G\	16cc#X/
16B\	16d/
16BB\	16dd/
16B\JJ	16d/JJ
16C\LL	16ee/LL
16c\	16e/
16G\	16dd#X/
16c\	16e/
16C\	16ee/
16c\JJ	16e/JJ
=126	=126
16D\LL	16a/LL
16A\	16d/
16F#\	16g#X/
16A\	16d/
16F#\	16a/
16A\JJ	16d/JJ
*rep	*
16D\LL	16a/LL
16A\	16d/
16F#\	16a/
16A\	16d/
16F#\	16a/
16A\JJ	16d/JJ
*Xrep	*
=127	=127
16GG\LL	16b/LL
16G\	16d/
16D\	16a#X/
16G\	16d/
16GG\	16b/
16G\JJ	16d/JJ
16C\LL	16cc/LL
16A\	16d/
16F#\	16b/
16A\	16d/
16F#\	16cc/
16A\JJ	16d/JJ
=128	=128
16BB\LL	16dd/LL
16B\	16d/
16G\	16cc#X/
16B\	16d/
16BB\	16dd/
16B\JJ	16d/JJ
16C\LL	16ee/LL
16c\	16e/
16G\	16dd#X/
16c\	16e/
16C\	16ee/
16c\JJ	16e/JJ
!!LO:LB:g=original
=129	=129
16D\LL	16ee/LL
16B\	16d/
16G\	16g/
16B\	16d/
16D\	16g/
16B\JJ	16d/JJ
16D\LL	16g/LL
16c\	16d/
16F#\	16b/
16c\	16d/
16D\	16a/
16c\JJ	16d/JJ
=130	=130
16GG\LL	16g/LL
16G\	16d/
16D\	16c#X/
16G\	16d/
16BB\	16c#/
16G\JJ	16d/JJ
*rep	*
!	!LO:TX:t=P:problem=mixed beam
16GG\LL	16c#/LL
16G\	16d/
16D\	16c#/
16G\	16d/
16BB\	16ee\
16G\JJ	16d/JJ
*Xrep	*
=131	=131
!	!LO:TX:t=P:problem=mixed beam
16GG#X\LL	16dd\LL
16E\	16e/
16BB\	16ffn\
16E\	16e/
16D\	16ee\
16E\JJ	16e/JJ
*rep	*
16GG#\LL	16dd/LL
16E\	16e/
16BB\	16cc/
16E\	16e/
16D\	16b/
16E\JJ	16e/JJ
*Xrep	*
=132	=132
16C\LL	16dd/LL
16A\	16e/
16E\	16cc/
16A\	16e/
16E\	16cc/
16A\JJ	16e/JJ
*rep	*
16C\LL	16cc/LL
16A\	16e/
16E\	16b/
16A\	16e/
16E\	16cc/
16A\JJ	16e/JJ
*Xrep	*
=133	=133
!	!LO:TX:t=P:problem=mixed beam
16D\LL	16cc\LL
16c\	16e/
16F#\	16ee\
16c\	16e/
16A\	16dd\
16c\JJ	16e/JJ
*rep	*
16D\LL	16cc\LL
16c\	16f#\
16F#\	16b\
16c\	16f#\
16A\	16a\
16c\JJ	16f#\JJ
*Xrep	*
=134	=134
*rep	*
16D\LL	16cc\LL
16c\	16g\
16F#\	16b\
16c\	16g\
16A\	16b\
16c\JJ	16g\JJ
*Xrep	*
*rep	*
16D\LL	16b\LL
16c\	16g\
16F#\	16a#X\
16c\	16g\
16A\	16b\
16c\JJ	16g\JJ
*Xrep	*
=135	=135
!	!LO:TX:t=P:problem=mixed beam
16E\LL	16cc#X\LL
16c#X\	16g/
16G\	16gg\
16c#\	16g/
16A\	16ff#\
16c#\JJ	16g/JJ
*rep	*
16E\LL	16ee\LL
16c#\	16g\
16G\	16dd\
16c#\	16g\
16A\	16cc#\
16c#\JJ	16g\JJ
*Xrep	*
!!LO:LB:g=original
=136	=136
!LO:TX:t=P:problem=fermata na dole	!
4.D;\ 4.F# 4.A 4.d	4.f#;/ 4.dd
4r	8r
.	8r
!	!LO:TX:t=P:problem=mixed beam
8r	16dd\LL
.	16d/JJ
=137	=137
16FF#/LL	16a/LL 16cc
!	!LO:TX:b:t=d
16D/	16d/
16C#X/	16c#X/
16D/	16d/
16FF#/	16a/ 16cc
16D/JJ	16d/JJ
*rep	*
16FF#/LL	16g/LL 16b
16D/	16d/
16C#/	16c#/
16D/	16d/
16FF#/	16g/ 16b
16D/JJ	16d/JJ
*Xrep	*
=138	=138
!LO:TX:t=P:problem=mixed beam	!
16DD/LL	16f#/LL 16a
16D\	16d/
16C#X\	16c#X/
16D\	16d/
!	!LO:SIC:s=16c#:v
16C#\	16d/
16D\JJ	16d/JJ
16Cn\LL	16f#/LL
16D\	16d/
16BB\	16g/
16D\	16d/
16AA\	16a/
16D\JJ	16f#/JJ
=139	=139
16GG\LL	16b/LL
16G\	16d/
16D\	16a#X/
16G\	16d/
16GG\	16b/
16G\JJ	16d/JJ
16AA\LL	16cc/LL
16A\	16d/
16D\	16b/
16A\	16d/
16AA\	16cc/
16A\JJ	16d/JJ
=140	=140
!	!LO:TX:t=P:problem=mixed beam
16BB\LL	16dd\LL
16B\	16d/
16G\	16cc#X\
16B\	16d/
16BB\	16dd\
16B\JJ	16d/JJ
!	!LO:TX:t=P:problem=mixed beam
16C\LL	16ee\LL
16c\	16e/
16G\	16dd#X\
16c\	16e/
16C\	16ee\
16c\JJ	16e/JJ
=141	=141
16D\LL	16ee/LL
16B\	16d/
16G\	16g/
16B\	16d/
16D\	16g/
16B\JJ	16d/JJ
16D\LL	16g/LL
16c\	16d/
16F#\	16b/
16c\	16d/
16D\	16a/
16c\JJ	16d/JJ
=142	=142
4G\	16g/LL
.	16d/
.	16B/
.	16d/
8r	16B/
.	16G/JJ
!	!LO:TX:a:t=P:start:problem= na dolnej pięciolinii
8r	16F#/LL
.	16A/
8r	16d/
.	16A/
8D\	16F#/
.	16A/JJ
!!LO:LB:g=original
=143	=143
4BB\	16G/LL
.	16B/
.	16d/
.	16B/
8BB\	16G/
.	16B/JJ
4AA\	16F#/LL
.	16c/
.	16d/
.	16c/
8AA\	16F#/
.	16c/JJ
=144	=144
4GG\	16G/LL
.	16B/
.	16d/
.	16B/
8r	16G/
.	16B/JJ
4r	16F#/LL
.	16A/
.	16d/
.	16A/
*8va	*
!LO:TX:a:t=P:start:problem=na górnej pięciolinii	!
8ddd/	16F#/
.	16A/JJ
=145	=145
4bb/	16G\LL
.	16B\
.	16d\
.	16B\
8bb/	16G\
!	!LO:TX:a:t=P:koniec:problem=na dolnej pięciolinii
.	16B\JJ
4aa/	16c\LL
.	16d\
.	16f#\
.	16d\
8aa/	16c\
.	16d\JJ
=146	=146
!LO:TX:a:t=P:koniec:problem=na górnej pięciolinii	!
4gg/	16B\LL
.	16d\
.	16g\
.	16d\
*X8va	*
8r	16B\
.	16G\JJ
!	!LO:TX:a:t=P:start:problem=na dolnej pięciolinii
8ryy	16F#/LL
.	16A/
16C#X\LL	16d/
16D\	16A/
16C#\	16F#/
16D\JJ	16A/JJ
=147	=147
8BB\	16G/LL
.	16B/
16C#X\LL	16d/
16D\	16B/
16C#\	16G/
16D\JJ	16B/JJ
8AA\	16F#/LL
.	16c/
16C#\LL	16d/
16D\	16c/
16C#\	16F#/
16D\JJ	16c/JJ
=148	=148
4GG\	16G/LL
.	16B/
.	16d/
.	16B/
8r	16G/
.	16B/JJ
8r	16F#/LL
.	16A/
*8va	*
!LO:TX:a:t=P:start:problem=na górnej pięciolinii	!
16ccc#X\LL	16d/
16ddd\	16A/
16ccc#\	16F#/
16ddd\JJ	16A/JJ
*X8va	*
!!LO:PB:g=original
=149	=149
*8va	*
8bb\L	16G/LL
.	16B/
16ccc#X\L	16d/
16ddd\	16B/
16ccc#\	16G/
16ddd\JJ	16B/JJ
8aa\L	16c/LL
.	16d/
16ccc#\L	16f#/
16ddd\	16d/
16ccc#\	16c/
!	!LO:TX:a:t=P:koniec:problem=na dolnej pięciolinii
16ddd\JJ	16d/JJ
=150	=150
!LO:TX:a:t=P:koniec:problem=na górnej pięciolinii	!
4gg#X\	16B\LL
.	16d\
.	16fn\
.	16d\
*X8va	*
8r	16B\
.	16d\JJ
*	*rep
4r	16B\LL
.	16d\
.	16fn\
.	16d\
8DD/ 8D	16B\
.	16d\JJ
*	*Xrep
=151	=151
!LO:TX:b:t=8	!
4GG#X/ 4G#Xyy	16B/LL
.	16d/
.	16e/
.	16d/
8GG#/ 8G#yy	16B/
.	16d/JJ
!LO:TX:b:t=8	!
4D\ 4dyy	16B/LL
.	16d/
.	16g#X/
.	16e/
8D\ 8dyy	16B/
.	16e/JJ
=152	=152
!LO:TX:b:t=8	!
4.C/ 4.cyy	16A/LL
.	16e/
.	16g/
.	16e/
.	16A/
.	16e/JJ
!LO:TX:b:t=-	!
4.C#X/ 4.c#Xyy	16e\LL
.	16g\
.	16b-X\
.	16g\
.	16e\
.	16g\JJ
=153	=153
4.DD/ 4.D	16d\LL
.	16g\
.	16bn\
.	16g\
.	16d\
.	16g\JJ
4.DD/ 4.D	16d\LL
.	16f#\
.	16cc\
.	16f#\
.	16d\
.	16f#\JJ
=154	=154
16GG\LL	4d/ 4g 4b
16BB\ 16D	.
16G\	.
16D\	.
16GG\ 16BB	8r
16D\JJ	.
*rep	*
16GG\LL	4r
16BB\ 16D	.
16G\	.
16D\	.
16GG\ 16BB	8dd\ 8ddd
16D\JJ	.
*Xrep	*
!!LO:LB:g=original
=155	=155
!	!LO:SIC:n=2:s=4g#:v
16BB\LL	4g\ 4gg#X
16D\	.
16G#X\	.
16D\	.
!	!LO:SIC:n=2:s=8g#:v
16BB\	8g\ 8gg#
16D\JJ	.
*rep	*
16BB\LL	4ee\ 4eee
16D\	.
16G#\	.
16D\	.
16BB\	8ee\ 8eee
16D\JJ	.
*Xrep	*
=156	=156
16C\LL	4.a\ 4.cc 4.aa
16E\	.
16A\	.
16E\	.
16C\	.
16E\JJ	.
16C#X\LL	4.b-X\ 4.bb-X
16G\	.
16B-X\	.
16G\	.
16C#\	.
16G\JJ	.
=157	=157
16D\LL	4.bn\ 4.bbn
16G\	.
16Bn\	.
16G\	.
16D\	.
16G\JJ	.
16D\LL	4cc\ 4ccc
16F#\	.
16c\	.
16F#\	.
16D\	8a\ 8aa
16F#\JJ	.
=158	=158
16GG\LL	4g\ 4gg
16BB\	.
16G\	.
16BB\	.
16G\	8r
16BB\JJ	.
16GG\LL	4r
16BB\	.
16Fn\	.
16BB\	.
16F\	8g/
16BB\JJ	.
=159	=159
16GG\LL	(4e/
16C\	.
16E\	.
16C\	.
16E\	8g/)
16C\JJ	.
16GG\LL	(4d/
16BB\	.
16F#\	.
16BB\	.
16F#\	8g/)
16BB\JJ	.
=160	=160
16GG\LL	4c/
16C\	.
16E\	.
16C\	.
16E\	8r
16C\JJ	.
16GG\LL	4r
16AA\	.
16F#X\	.
16AA\	.
16F#\	8dd\
16AA\JJ	.
=161	=161
!LO:TX:a:t=dwa razy via&colon;	!
!LO:TX:a:t=g h g h g h	!
16GG\LL	4b\
16BB\	.
16G\	.
16BB\	.
16G\	8dd\
16BB\JJ	.
*rep	*
16GG\LL	4a\
16BB\	.
16G\	.
16BB\	.
16G\	8dd/
16BB\JJ	.
*Xrep	*
!!LO:LB:g=original
=162	=162
16GG\LL	4g/
16BB\	.
16G\	.
16BB\	.
16G\	8r
16BB\JJ	.
16GG\LL	8r
16BB\	.
16Fn\	16aa\LL
16BB\	16gg\
16F\	16aa\
16BB\JJ	16gg\JJ
=163	=163
16GG\LL	8ee\L
16C\	.
16E\	16aa\L
16C\	16gg\
16E\	16aa\
16C\JJ	16gg\JJ
16GG\LL	8dd\L
16BB\	.
16F#\	16aa\L
16BB\	16gg\
16F#\	16aa\
16BB\JJ	16gg\JJ
=164	=164
16GG\LL	4cc\
16C\	.
16E\	.
16C\	.
16E\	8r
16C\JJ	.
16GG\LL	8r
16AA\	.
16F#X\	16fff#\LL
16AA\	16ddd\
16F#\	16eee\
16AA\JJ	16ddd\JJ
=165	=165
16GG\LL	8bb\L
16BB\	.
16E\	16eee\L
16BB\	16ddd\
16E\	16eee\
16BB\JJ	16ddd\JJ
16GG\LL	8aa\L
16C\	.
16F#X\	16eee\L
16C\	16ddd\
16F#\	16eee\
16C\JJ	16ddd\JJ
=166	=166
16GG\LL	4gg\
16BB\	.
16G\	.
16BB\	.
16G\	8r
16BB\JJ	.
16GG\LL	8r
16C\	.
16F#\	16ee\LL
16C\	16dd\
16F#\	16ee\
16C\JJ	16dd\JJ
=167	=167
16GG\LL	4g/
16BB\	.
16G\	.
16BB\	.
16G\	8r
16BB\JJ	.
16GG\LL	8r
16C\	.
16F#\	16e/LL
16C\	16d/
16F#\	16e/
16C\JJ	16d/JJ
=168	=168
16GG\LL	4B/
16BB\	.
16D\	.
16G\	.
16D\	8r
16BB\JJ	.
*rep	*
16GG\LL	4B/ 4g
16BB\	.
16D\	.
16G\	.
16D\	8r
16BB\JJ	.
*Xrep	*
!!LO:LB:g=original
=169	=169
4GG/	4B/ 4g
8r	8r
4r;	4r;
8ryy	8r
==	==
*-	*-
!!!system-decoration: [(g1)]
!!!RDF**kern: >= above
!!!RDF**kern: <= below
!!!AIN: 2 empty
!!!ENC: Anna Matuszewska
!!!END: 2020-12-07
!!!ENC: Marta Chmielewska
!!!END: 2020-06-19
